svgs/sharp-regular/mill-sign.svg

<svg xmlns="http://www.w3.org/2000/svg" viewBox="0 0 384 512"><!--! Font Awesome Pro 6.6.0 by @fontawesome - https://fontawesome.com License - https://fontawesome.com/license (Commercial License) Copyright 2024 Fonticons, Inc. --><path d="M168 251.5L73.6 495.3l44.8 17.3L168 384.5l0 39.5 0 24 48 0 0-24 0-163.5 44.3-114.4c5-1.4 10.3-2.1 15.7-2.1c33.1 0 60 26.9 60 60l0 220 0 24 48 0 0-24 0-220c0-58.4-46.4-106-104.4-107.9l30.7-79.4L265.6-.7 222.8 110c-11.8 6.7-22.3 15.6-30.8 26.1C172.2 111.6 141.9 96 108 96c-22.2 0-42.8 6.7-60 18.2L48 96 0 96 0 204l0 4L0 424l0 24 48 0 0-24 0-216 0-4c0-33.1 26.9-60 60-60s60 26.9 60 60l0 47.5z"/></svg>

<svg xmlns="http://www.w3.org/2000/svg" viewBox="0 0 384 512"><!--! Font Awesome Pro 6.4.2 by @fontawesome - https://fontawesome.com License - https://fontawesome.com/license (Commercial License) Copyright 2023 Fonticons, Inc. --><path d="M168 251.5L73.6 495.3l44.8 17.3L168 384.5V424v24h48V424 260.5l44.3-114.4c5-1.4 10.3-2.1 15.7-2.1c33.1 0 60 26.9 60 60V424v24h48V424 204c0-58.4-46.4-106-104.4-107.9l30.7-79.4L265.6-.7 222.8 110c-11.8 6.7-22.3 15.6-30.8 26.1C172.2 111.6 141.9 96 108 96c-22.2 0-42.8 6.7-60 18.2V96H0V204v4V424v24H48V424 208v-4c0-33.1 26.9-60 60-60s60 26.9 60 60v47.5z"/></svg>
